X:1092
M:6/8
L:1/8
Q:3/8=104
K:G
d|e2e e>fg|   d2d  d2c| B2B         B>^cd|     A2  A     A2
d|e2e e>fg|{e}d2d  d2c|(B>c)d       g2  B|({B}TA>G)A     G2
d|e2e e>fg|{e}d2d Hd2c|(B>c)d ({ef}Hg2) B|({B}TA>G)A     G2|]

